public/favicon.svg

<svg xmlns="http://www.w3.org/2000/svg" version="1.1" xmlns:xlink="http://www.w3.org/1999/xlink" xmlns:svgjs="http://svgjs.com/svgjs" width="700" height="700"><svg viewBox="0 0 700 700" xmlns="http://www.w3.org/2000/svg">
	<defs>
		<filter filterUnits="objectBoundingBox" id="SvgjsFilter1002" x="0" y="0" height="1" width="1">
			<feComponentTransfer>
				<feFuncR type="table" tableValues="1 0"></feFuncR>
				<feFuncG type="table" tableValues="1 0"></feFuncG>
				<feFuncB type="table" tableValues="1 0"></feFuncB>
				<feFuncA type="linear" intercept="0.01"></feFuncA>
			</feComponentTransfer>
		</filter>
	</defs>
	<g id="SvgjsG1001" style="fill: #212121; stroke: none">
		<path d="M 489.76865,566.18403 660.61895,521.58696 634.11077,422.48795 539.86812,292.75812 439.72488,195.82971 358.34021,42.884523 317.19608,0 l -29.73834,32.724841 -6.93983,73.857839 12.49821,70.00114 -110.77075,42.19951 -65.02503,63.50741 -23.865576,55.47518 -10.290003,45.25562 -21.434603,37.01037 -22.249105,29.27052 8.250547,20.76491 4.731624,5.34076 23.555092,-19.85155 -15.695505,28.73309 45.098299,40.58303 19.74852,6.56446 11.48655,14.58166 12.9876,8.28856 c 0,0 11.03517,2.93694 18.37709,2.36038 8.07651,-0.62545 37.01037,-10.8557 37.01037,-10.8557 l 79.079,-22.10291 26.47059,3.56236 13.7762,17.35514 6.97784,54.22906 L 330.97926,700 Z"></path>
	</g>
	<g id="SvgjsG1000" style="fill: none; stroke: #212121" filter="url(#invert)" transform="translate(3.7e-4,3.3e-4)">
		<path d="M 287.458,32.7248 358.34,42.8845 317.196,-4.84255e-5 Z"></path>
		<path d="M 280.518,106.583 358.34,42.8845 287.458,32.7248 Z"></path>
		<path d="M 378.492,212.252 439.725,195.83 358.34,42.8845 Z"></path>
		<path d="M 293.016,176.584 358.34,42.8845 280.518,106.583 Z"></path>
		<path d="M 293.016,176.584 378.492,212.252 358.34,42.8845 Z"></path>
		<path d="m 378.492,212.252 50.547,74.766 10.686,-91.188 z"></path>
		<path d="m 293.016,176.584 39.711,115.08 45.765,-79.412 z"></path>
		<path d="M 246.088,316.613 293.016,176.584 182.245,218.783 Z"></path>
		<path d="m 429.039,287.018 110.829,5.74 -100.143,-96.928 z"></path>
		<path d="m 332.727,291.664 96.312,-4.646 -50.547,-74.766 z"></path>
		<path d="m 246.088,316.613 86.639,-24.949 -39.711,-115.08 z"></path>
		<path d="m 477.362,348.717 62.506,-55.959 -110.829,-5.74 z"></path>
		<path d="m 117.22,282.291 128.868,34.322 -63.843,-97.83 z"></path>
		<path d="m 117.22,282.291 71.756,83.149 57.112,-48.827 z"></path>
		<path d="M 83.0647,383.021 188.976,365.44 117.22,282.291 Z"></path>
		<path d="m 246.088,316.613 90.091,95.183 -3.452,-120.132 z"></path>
		<path d="m 336.179,411.796 92.86,-124.778 -96.312,4.646 z"></path>
		<path d="M 336.179,411.796 477.362,348.717 429.039,287.018 Z"></path>
		<path d="m 243.288,444.13 2.8,-127.517 -57.112,48.827 z"></path>
		<path d="m 243.288,444.13 92.891,-32.334 -90.091,-95.183 z"></path>
		<path d="m 530,450.574 9.868,-157.816 -62.506,55.959 z"></path>
		<path d="m 39.381,449.302 36.5373,6.255 7.1464,-72.536 z"></path>
		<path d="M 530,450.574 634.111,422.488 539.868,292.758 Z"></path>
		<path d="M 52.3632,475.408 75.9183,455.557 39.381,449.302 Z"></path>
		<path d="M 75.9183,455.557 188.976,365.44 83.0647,383.021 Z"></path>
		<path d="m 414.102,501.062 63.26,-152.345 -141.183,63.079 z"></path>
		<path d="M 414.102,501.062 530,450.574 477.362,348.717 Z"></path>
		<path d="M 60.2228,484.29 105.321,524.873 75.9183,455.557 Z"></path>
		<path d="M 284.01,523.709 336.179,411.796 243.288,444.13 Z"></path>
		<path d="m 284.01,523.709 26.471,3.562 25.698,-115.475 z"></path>
		<path d="M 75.9183,455.557 243.288,444.13 188.976,365.44 Z"></path>
		<path d="m 125.07,531.437 -49.1517,-75.88 29.4027,69.316 z"></path>
		<path d="M 125.07,531.437 243.288,444.13 75.9183,455.557 Z"></path>
		<path d="M 310.481,527.271 414.102,501.062 336.179,411.796 Z"></path>
		<path d="m 125.07,531.437 79.861,14.375 38.357,-101.682 z"></path>
		<path d="M 204.931,545.812 284.01,523.709 243.288,444.13 Z"></path>
		<path d="m 324.257,544.627 89.845,-43.565 -103.621,26.209 z"></path>
		<path d="m 149.544,554.307 55.387,-8.495 -79.861,-14.375 z"></path>
		<path d="m 530,450.574 130.619,71.013 -26.508,-99.099 z"></path>
		<path d="M 414.102,501.062 489.769,566.184 530,450.574 Z"></path>
		<path d="M 489.769,566.184 660.619,521.587 530,450.574 Z"></path>
		<path d="m 331.235,598.856 82.867,-97.794 -89.845,43.565 z"></path>
		<path d="M 331.235,598.856 489.769,566.184 414.102,501.062 Z"></path>
		<path d="M 330.979,700 489.769,566.184 331.235,598.856 Z"></path>
	</g>
</svg><style>@media (prefers-color-scheme: light) { :root { filter: none; } }
@media (prefers-color-scheme: dark) { :root { filter: invert(100%); } }
</style></svg>

<svg viewBox="0 0 700 700" xmlns="http://www.w3.org/2000/svg"><style>@keyframes stroke{0%,20%{stroke-dashoffset:700}100%{stroke-dashoffset:0}}@media (prefers-color-scheme:dark){#logo{color:#efefef}}@media (prefers-color-scheme:light){#logo{color:#212121}}</style><g id="logo"><path d="M489.769 566.184l170.85-44.597-26.508-99.099-94.243-129.73-100.143-96.928L358.34 42.885 317.196 0l-29.738 32.725-6.94 73.858 12.498 70-110.77 42.2-65.026 63.508-23.865 55.475-10.29 45.256-21.435 37.01-22.249 29.27 8.25 20.765 4.732 5.341 23.555-19.851-15.695 28.733 45.098 40.583 19.749 6.564 11.486 14.582 12.988 8.288s11.035 2.937 18.377 2.36c8.076-.625 37.01-10.855 37.01-10.855l79.08-22.103 26.47 3.562 13.776 17.356 6.978 54.229L330.979 700z" fill="currentColor"/><g fill="none" stroke="currentColor" stroke-width="5" stroke-dasharray="700" stroke-dashoffset="700" style="animation:stroke 3s linear forwards;filter:invert()"><path d="M287.458 32.725l70.882 10.16L317.196 0zm-6.94 73.858l77.822-63.698-70.882-10.16zm97.974 105.669l61.233-16.422L358.34 42.884z"/><path d="M293.016 176.584l65.324-133.7-77.822 63.699z"/><path d="M293.016 176.584l85.476 35.668L358.34 42.884zm85.476 35.668l50.547 74.766 10.686-91.188z"/><path d="M293.016 176.584l39.711 115.08 45.765-79.412zm-46.928 140.029l46.928-140.029-110.771 42.199zm182.951-29.595l110.829 5.74-100.143-96.928z"/><path d="M332.727 291.664l96.312-4.646-50.547-74.766zm-86.639 24.949l86.639-24.949-39.711-115.08zm231.274 32.104l62.506-55.959-110.829-5.74zM117.22 282.291l128.868 34.322-63.843-97.83zm0 0l71.756 83.149 57.112-48.827z"/><path d="M83.065 383.021l105.911-17.581-71.756-83.149zm163.023-66.408l90.091 95.183-3.452-120.132z"/><path d="M336.179 411.796l92.86-124.778-96.312 4.646zm0 0l141.183-63.079-48.323-61.699zm-92.891 32.334l2.8-127.517-57.112 48.827z"/><path d="M243.288 444.13l92.891-32.334-90.091-95.183zM530 450.574l9.868-157.816-62.506 55.959zm-490.619-1.272l36.537 6.255 7.147-72.536z"/><path d="M530 450.574l104.111-28.086-94.243-129.73zM52.363 475.408l23.555-19.851-36.537-6.255zm23.555-19.851l113.058-90.117-105.911 17.581zm338.184 45.505l63.26-152.345-141.183 63.079zm0 0L530 450.574l-52.638-101.857zM60.223 484.29l45.098 40.583-29.403-69.316zm223.787 39.419l52.169-111.913-92.891 32.334zm0 0l26.471 3.562 25.698-115.475z"/><path d="M75.918 455.557l167.37-11.427-54.312-78.69zm49.152 75.88l-49.152-75.88 29.403 69.316zm0 0l118.218-87.307-167.37 11.427zm185.411-4.166l103.621-26.209-77.923-89.266z"/><path d="M125.07 531.437l79.861 14.375 38.357-101.682zm79.861 14.375l79.079-22.103-40.722-79.579zm119.326-1.185l89.845-43.565-103.621 26.209z"/><path d="M149.544 554.307l55.387-8.495-79.861-14.375zM530 450.574l130.619 71.013-26.508-99.099zm-115.898 50.488l75.667 65.122L530 450.574z"/><path d="M489.769 566.184l170.85-44.597L530 450.574zm-158.534 32.672l82.867-97.794-89.845 43.565z"/><path d="M331.235 598.856l158.534-32.672-75.667-65.122z"/><path d="M330.979 700l158.79-133.816-158.534 32.672z"/></g></g></svg>
